X:1
T:Masyrka frn Glimkra
C:efter Ludvig Pihlblad
R:Masurka
Z:Patrik Mnsson, 2008-12-03
O:Glimkra, Skne
N: Noten innehller anteckningen "StN 22/2-01"
M:3/4
L:1/8
K:G
|: BA Bd G2 | cB ce A2 | FE FA DF |
GF GB d2 | BA Bd G2 | cB ce A2 |
FE FA DF | G2 G2 z2 :: B4 B2 | AG FG AB |
c4 c2 | BA GA Bc | d4 d2 | ed dB cA |
GF GB AF | G4 z2 :: B2 G2 FG | c2 A2 ^GA |
DE FG AG | GA Bc d2 | B2 G2 FG |
c2 A2 ^GA | DE FG AF | G2 G2 z2 :|
